X: 12747
T: Father Newman's
R: reel
M: 4/4
K: Gmajor
Bd|e3g edBA|GDGA B3d|eaa2 bagb|agea gedB|
e3g edBA|G3A BABd|eaa2 gedg|edBA G4:|
|:Bc|dGG2 FDcA|Bgg2 fgaf|dgg2 bgg2|afge f2ef|
dGG2 FDcA|Bgg2 fgaf|eaa2 gedg|edBA G4:|

